public/assets/electric2.svg

<svg width="144" height="95" viewBox="0 0 144 95" fill="none" xmlns="http://www.w3.org/2000/svg">
<path d="M0.999573 94.1689H143" stroke="#062023" stroke-miterlimit="10" stroke-linecap="round" stroke-linejoin="round"/>
<path d="M143 0H0.999573V9.34734H143V0Z" fill="url(#paint0_linear_57_98)"/>
<path d="M138.857 93.9699V76.8662" stroke="#062023" stroke-miterlimit="10" stroke-linecap="round" stroke-linejoin="round"/>
<path d="M132.791 93.9699V76.8662" stroke="#062023" stroke-miterlimit="10" stroke-linecap="round" stroke-linejoin="round"/>
<path d="M126.708 93.9699V76.8662" stroke="#062023" stroke-miterlimit="10" stroke-linecap="round" stroke-linejoin="round"/>
<path d="M120.642 93.9699V76.8662" stroke="#062023" stroke-miterlimit="10" stroke-linecap="round" stroke-linejoin="round"/>
<path d="M114.577 93.9699V76.8662" stroke="#062023" stroke-miterlimit="10" stroke-linecap="round" stroke-linejoin="round"/>
<path d="M138.857 76.8662H114.577" stroke="#062023" stroke-miterlimit="10" stroke-linecap="round" stroke-linejoin="round"/>
<path d="M114.577 76.8662L138.857 93.9699" stroke="#062023" stroke-miterlimit="10" stroke-linecap="round" stroke-linejoin="round"/>
<path d="M52.2946 77.247L48.864 78.6557C47.4884 79.2192 46.8254 80.7605 47.3558 82.1527L50.1235 89.3952C50.223 89.6438 50.455 89.8096 50.7367 89.8096H89.6011C89.8663 89.8096 90.1149 89.6438 90.2143 89.3952L93.0649 81.9538C93.5621 80.6611 92.9986 79.1861 91.7722 78.5563L88.5736 76.9155" stroke="#062023" stroke-width="0.5" stroke-miterlimit="10" stroke-linecap="round" stroke-linejoin="round"/>
<path d="M69.4484 83.0146H53.0739C52.7259 83.0146 52.4607 82.7328 52.4607 82.4014V75.2914C52.4607 74.9434 52.7425 74.6782 53.0739 74.6782H69.4484C69.7964 74.6782 70.0616 74.96 70.0616 75.2914V82.4014C70.0616 82.7494 69.7798 83.0146 69.4484 83.0146Z" stroke="#062023" stroke-width="0.5" stroke-miterlimit="10" stroke-linecap="round" stroke-linejoin="round"/>
<path d="M69.5483 87.5397H51.1519C50.8039 87.5397 50.5387 87.258 50.5387 86.9265V84.8217C50.5387 84.4737 50.8205 84.2085 51.1519 84.2085H69.5483C69.8963 84.2085 70.1615 84.4902 70.1615 84.8217V86.9265C70.1615 87.258 69.8963 87.5397 69.5483 87.5397Z" stroke="#062023" stroke-width="0.5" stroke-miterlimit="10" stroke-linecap="round" stroke-linejoin="round"/>
<path d="M89.7006 87.5397H71.3043C70.9562 87.5397 70.6911 87.258 70.6911 86.9265V84.8217C70.6911 84.4737 70.9728 84.2085 71.3043 84.2085H89.7006C90.0487 84.2085 90.3139 84.4902 90.3139 84.8217V86.9265C90.3304 87.258 90.0487 87.5397 89.7006 87.5397Z" stroke="#062023" stroke-width="0.5" stroke-miterlimit="10" stroke-linecap="round" stroke-linejoin="round"/>
<path d="M87.6787 83.0146H71.3043C70.9562 83.0146 70.6911 82.7328 70.6911 82.4014V75.2914C70.6911 74.9434 70.9728 74.6782 71.3043 74.6782H87.6787C88.0267 74.6782 88.2919 74.96 88.2919 75.2914V82.4014C88.2919 82.7494 88.0267 83.0146 87.6787 83.0146Z" stroke="#062023" stroke-width="0.5" stroke-miterlimit="10" stroke-linecap="round" stroke-linejoin="round"/>
<path d="M51.052 89.8096L50.8034 93.8369C50.8034 93.9363 50.936 93.9695 50.9857 93.87L52.7425 89.8096" stroke="#062023" stroke-width="0.5" stroke-miterlimit="10" stroke-linecap="round" stroke-linejoin="round"/>
<path d="M89.3025 89.8096L89.5511 93.8369C89.5511 93.9363 89.4185 93.9695 89.3688 93.87L87.612 89.8096" stroke="#062023" stroke-width="0.5" stroke-miterlimit="10" stroke-linecap="round" stroke-linejoin="round"/>
<path d="M22.9927 93.986H19.0814C18.0704 93.986 17.192 93.3562 17.0263 92.4944L16.0319 87.5887C15.8164 86.4949 16.7942 85.4839 18.087 85.4839H23.9871C25.2798 85.4839 26.2742 86.4949 26.0421 87.5887L25.0477 92.4944C24.882 93.3728 24.0202 93.986 22.9927 93.986Z" stroke="#062023" stroke-width="0.5" stroke-miterlimit="10" stroke-linecap="round" stroke-linejoin="round"/>
<path d="M22.1649 85.4843C22.1649 85.4843 22.1152 84.1419 23.1261 83.0481C24.1205 81.9542 26.7225 78.2252 27.949 77.9103C29.1754 77.5954 31.8603 77.6783 31.8603 77.6783C31.8603 77.6783 28.9931 77.8606 28.2639 78.9545C27.5346 80.0483 26.6397 82.7332 24.452 83.4624C23.6233 83.7276 23.1759 85.4843 23.1759 85.4843" stroke="#062023" stroke-width="0.5" stroke-miterlimit="10" stroke-linecap="round" stroke-linejoin="round"/>
<path d="M21.3358 85.3187C21.3358 85.3187 21.6839 78.8716 25.1477 76.3857C26.7387 75.2421 27.2359 73.7339 28.6944 73.4688C27.9154 74.3306 28.9098 76.3691 26.8879 77.2806C26.8879 77.2806 25.3632 77.6784 24.6671 79.9323C24.2362 81.3245 23.1258 83.0647 23.1258 83.0647" stroke="#062023" stroke-width="0.5" stroke-miterlimit="10" stroke-linecap="round" stroke-linejoin="round"/>
<path d="M21.7497 82.5679C21.7497 82.5679 21.4017 76.8169 20.0095 76.0546C18.6339 75.2922 16.5954 74.3972 15.3027 75.143C14.242 75.7397 13.7614 77.0158 12.7836 77.2478C14.0929 77.1981 15.7999 74.5961 17.3578 75.5242C18.0539 75.9386 20.5067 76.9827 21.0371 85.319" stroke="#062023" stroke-width="0.5" stroke-miterlimit="10" stroke-linecap="round" stroke-linejoin="round"/>
<path d="M19.3139 85.3188C19.3139 85.3188 17.7229 81.1258 16.5296 80.2474C15.8501 79.7502 12.9001 78.4906 10.9113 78.59C11.5245 79.137 12.6846 80.38 13.6458 80.5457C15.8832 80.9269 18.1206 83.4957 18.8333 85.3188" stroke="#062023" stroke-width="0.5" stroke-miterlimit="10" stroke-linecap="round" stroke-linejoin="round"/>
<path d="M20.6224 85.3187C20.6224 85.3187 19.4789 79.8164 18.3353 78.8385C17.1918 77.8773 16.4294 77.2806 15.3521 76.2034C14.2583 75.1261 11.7889 74.0654 11.0431 74.0654C12.4518 74.0654 13.0319 75.0267 13.181 75.4079C13.8937 77.3469 16.5785 78.2916 17.026 79.6838C17.7221 81.8052 19.5452 83.4459 19.4789 85.3021" stroke="#062023" stroke-width="0.5" stroke-miterlimit="10" stroke-linecap="round" stroke-linejoin="round"/>
<path d="M21.2689 78.938C21.2689 78.938 21.6003 76.2366 22.7273 75.1096C23.0091 74.8279 23.2742 73.9826 23.2742 73.5352C23.2411 74.5461 24.1195 76.4686 23.7383 77.7945" stroke="#062023" stroke-width="0.5" stroke-miterlimit="10" stroke-linecap="round" stroke-linejoin="round"/>
<path d="M72 9.09863V36.8258" stroke="#062023" stroke-width="0.5" stroke-miterlimit="10" stroke-linecap="round" stroke-linejoin="round"/>
<path d="M74.7672 40.9529C75.4965 42.8257 74.2866 44.9802 72.2812 45.1625C72.1818 45.1791 72.0824 45.1791 71.9995 45.1791C71.9001 45.1791 71.8006 45.1791 71.7177 45.1625C69.729 44.9802 68.5191 42.8422 69.2152 40.9695L69.961 39.0138C70.0936 38.6658 70.1599 38.2846 70.1599 37.9034V37.4228C70.1599 37.0913 70.425 36.8096 70.7731 36.8096H73.2093C73.5408 36.8096 73.8226 37.0747 73.8226 37.4228V37.8868C73.8226 38.268 73.8889 38.6492 74.038 39.0138L74.7672 40.9529Z" stroke="#062023" stroke-width="0.5" stroke-miterlimit="10" stroke-linecap="round" stroke-linejoin="round"/>
<defs>
<linearGradient id="paint0_linear_57_98" x1="1.00063" y1="4.6752" x2="142.996" y2="4.6752" gradientUnits="userSpaceOnUse">
<stop offset="0.00249518" stop-color="#28C985"/>
<stop offset="1" stop-color="#18808A"/>
</linearGradient>
</defs>
</svg>

<svg width="144" height="95" fill="none" xmlns="http://www.w3.org/2000/svg"><path d="M1 94.169h142" stroke="#062023" stroke-miterlimit="10" stroke-linecap="round" stroke-linejoin="round"/><path d="M143 0H1v9.347h142V0z" fill="url(#a)"/><path d="M138.857 93.97V76.866M132.791 93.97V76.866M126.708 93.97V76.866M120.642 93.97V76.866M114.577 93.97V76.866M138.857 76.866h-24.28M114.577 76.866l24.28 17.104" stroke="#062023" stroke-miterlimit="10" stroke-linecap="round" stroke-linejoin="round"/><path d="m52.295 77.247-3.431 1.409a2.716 2.716 0 0 0-1.508 3.497l2.767 7.242a.65.65 0 0 0 .614.415H89.6a.667.667 0 0 0 .613-.415l2.85-7.441a2.731 2.731 0 0 0-1.292-3.398l-3.198-1.64" stroke="#062023" stroke-width=".5" stroke-miterlimit="10" stroke-linecap="round" stroke-linejoin="round"/><path d="M69.448 83.015H53.074a.612.612 0 0 1-.613-.614v-7.11c0-.348.282-.613.613-.613h16.374c.348 0 .614.282.614.613v7.11a.612.612 0 0 1-.614.614zM69.548 87.54H51.152a.612.612 0 0 1-.613-.614v-2.104c0-.348.282-.614.613-.614h18.396c.348 0 .614.282.614.614v2.105a.612.612 0 0 1-.614.613zM89.7 87.54H71.305a.612.612 0 0 1-.613-.614v-2.104c0-.348.282-.614.613-.614h18.397c.348 0 .613.282.613.614v2.105c.016.331-.265.613-.613.613zM87.679 83.015H71.304a.612.612 0 0 1-.613-.614v-7.11c0-.348.282-.613.613-.613H87.68c.348 0 .613.282.613.613v7.11a.602.602 0 0 1-.613.614zM51.052 89.81l-.249 4.027c0 .1.133.132.183.033l1.757-4.06M89.302 89.81l.25 4.027c0 .1-.134.132-.183.033l-1.757-4.06M22.993 93.986H19.08c-1.01 0-1.889-.63-2.055-1.492l-.994-4.905c-.216-1.094.762-2.105 2.055-2.105h5.9c1.293 0 2.287 1.01 2.055 2.105l-.994 4.905c-.166.879-1.028 1.492-2.055 1.492zM22.165 85.484s-.05-1.342.961-2.436c.994-1.094 3.596-4.823 4.823-5.138 1.226-.315 3.911-.232 3.911-.232s-2.867.183-3.596 1.276c-.73 1.094-1.624 3.78-3.812 4.508-.829.266-1.276 2.022-1.276 2.022" stroke="#062023" stroke-width=".5" stroke-miterlimit="10" stroke-linecap="round" stroke-linejoin="round"/><path d="M21.336 85.319s.348-6.447 3.812-8.933c1.59-1.144 2.088-2.652 3.546-2.917-.779.862.216 2.9-1.806 3.812 0 0-1.525.397-2.22 2.651-.432 1.392-1.542 3.133-1.542 3.133" stroke="#062023" stroke-width=".5" stroke-miterlimit="10" stroke-linecap="round" stroke-linejoin="round"/><path d="M21.75 82.568s-.348-5.751-1.74-6.513c-1.376-.763-3.415-1.658-4.707-.912-1.061.597-1.542 1.873-2.52 2.105 1.31-.05 3.017-2.652 4.575-1.724.696.415 3.149 1.459 3.68 9.795" stroke="#062023" stroke-width=".5" stroke-miterlimit="10" stroke-linecap="round" stroke-linejoin="round"/><path d="M19.314 85.319s-1.591-4.193-2.784-5.072c-.68-.497-3.63-1.756-5.619-1.657.614.547 1.774 1.79 2.735 1.956 2.237.38 4.475 2.95 5.187 4.773" stroke="#062023" stroke-width=".5" stroke-miterlimit="10" stroke-linecap="round" stroke-linejoin="round"/><path d="M20.622 85.319s-1.143-5.503-2.287-6.48c-1.143-.962-1.906-1.558-2.983-2.636-1.094-1.077-3.563-2.138-4.309-2.138 1.409 0 1.989.962 2.138 1.343.713 1.939 3.397 2.884 3.845 4.276.696 2.121 2.52 3.762 2.453 5.618M21.269 78.938s.331-2.701 1.458-3.828c.282-.282.547-1.127.547-1.575-.033 1.011.845 2.934.464 4.26M72 9.099v27.727M74.767 40.953c.73 1.873-.48 4.027-2.486 4.21-.1.016-.199.016-.282.016-.099 0-.198 0-.281-.017-1.989-.182-3.199-2.32-2.503-4.193l.746-1.955c.133-.348.199-.73.199-1.11v-.481c0-.332.265-.613.613-.613h2.436c.332 0 .614.265.614.613v.464c0 .381.066.762.215 1.127l.73 1.939z" stroke="#062023" stroke-width=".5" stroke-miterlimit="10" stroke-linecap="round" stroke-linejoin="round"/><defs><linearGradient id="a" x1="1.001" y1="4.675" x2="142.996" y2="4.675" gradientUnits="userSpaceOnUse"><stop offset=".002" stop-color="#28C985"/><stop offset="1" stop-color="#18808A"/></linearGradient></defs></svg>
